static/img/search.svg

<?xml version="1.0" encoding="UTF-8"?>
<svg enable-background="new 0 0 512 512" fill="dimgrey" version="1.1" viewBox="0 0 512 512" xml:space="preserve" xmlns="http://www.w3.org/2000/svg">
		<path d="m508.88 493.79-155.79-155.79c32.358-35.927 52.245-83.296 52.245-135.34-1e-3 -111.75-90.917-202.67-202.67-202.67s-202.67 90.917-202.67 202.67 90.917 202.67 202.67 202.67c52.043 0 99.411-19.887 135.34-52.245l155.79 155.79c2.083 2.083 4.813 3.125 7.542 3.125s5.458-1.042 7.542-3.125c4.166-4.167 4.166-10.917-1e-3 -15.083zm-306.21-109.79c-99.979 0-181.33-81.344-181.33-181.33s81.354-181.33 181.33-181.33 181.33 81.344 181.33 181.33-81.354 181.33-181.33 181.33z"/>
</svg>

<?xml version="1.0" encoding="iso-8859-1"?>
<!-- Generator: Adobe Illustrator 19.0.0, SVG Export Plug-In . SVG Version: 6.00 Build 0)  -->
<svg version="1.1" id="Layer_1" xmlns="http://www.w3.org/2000/svg" xmlns:xlink="http://www.w3.org/1999/xlink" x="0px" y="0px"
	 viewBox="0 0 512 512" fill="dimgrey" style="enable-background:new 0 0 512 512;" xml:space="preserve">
<g>
	<g>
		<path d="M508.875,493.792L353.089,338.005c32.358-35.927,52.245-83.296,52.245-135.339C405.333,90.917,314.417,0,202.667,0
			S0,90.917,0,202.667s90.917,202.667,202.667,202.667c52.043,0,99.411-19.887,135.339-52.245l155.786,155.786
			c2.083,2.083,4.813,3.125,7.542,3.125c2.729,0,5.458-1.042,7.542-3.125C513.042,504.708,513.042,497.958,508.875,493.792z
			 M202.667,384c-99.979,0-181.333-81.344-181.333-181.333S102.688,21.333,202.667,21.333S384,102.677,384,202.667
			S302.646,384,202.667,384z"/>
	</g>
</g>
<g>
</g>
<g>
</g>
<g>
</g>
<g>
</g>
<g>
</g>
<g>
</g>
<g>
</g>
<g>
</g>
<g>
</g>
<g>
</g>
<g>
</g>
<g>
</g>
<g>
</g>
<g>
</g>
<g>
</g>
</svg>
